X: 2
T: Forester's Hornpipe $1(R-72)
M: C|
Z: Transcribed to abc by Mary Lou Knack
R: hornpipe
K: D
fg| "D"a^gaf dfbg| a^gaf d2cd| "A"eAfA eAfA| edcB A2fg|
    "D"a^gaf dfbg| a^gaf d2cd| "G"BGFG "A"Adce| "D"f2d2 d2:|
|:cd| "A"edcB AGEG| "D"FAdf a2fa| "G"geBg "D"fdAf| "A"edcB A2cd|
    "A"edcB AGEG| "D"FAdf afba| "G"gfed "A"cABc| "D"d2f2 d2:|
% %textfont       Times-Bold 10.0
% %text Transition
| "D"d2z2 z4 |

